X:1
T:La Partida
C:Venezuela
M:3/4
L:1/8
R:Waltz
K:D
%%printtempo 0
Q:160
F GF =F^F|:\
"Bm"d3F dF|d3F dF|"F#"de/d/ c=c ^c2|zF GF =F^F|
c3E cE|c3E cE|"Bm"cd/c/ B_B =B2|z F GF =F^F|
"B7"B2 ^AB- B=c| B2 AG- GF|"Em"FG/F/ E_E =E2|zG FE DC|"Bm"B,^A, B,C EF|
"F#" FG FE DC|"Bm"B,C/B,/ ^A,B, DF|1 BF GF =F^F:|2Bz F2F2|:
"F#"fe Ff eF|fe Ff eF|"Bm"ed Fe dF|ed Fe dF|
"F#"dc Fd cF|dc Fd cF|"Bm"cB Fc BF|cB Fc BF|
"B7"BA FB AF|BA FB AF|"Em"FG/F/ E^D E2|zG FE DC|
"Bm"B,^A, B,C DE|"F#"FG FE DC|"Bm"B,C/B,/ ^A,B, DF|Bz F2F2:|
